packages/symbols/svgs/outline/house-outline.svg

<svg width="24" height="24" viewBox="0 0 24 24" fill="none" xmlns="http://www.w3.org/2000/svg">
<g clip-path="url(#clip0_1150_5559)">
<path fill-rule="evenodd" clip-rule="evenodd" d="M11.3668 1.22604C11.7352 0.924652 12.2649 0.924652 12.6333 1.22604L23.6333 10.226C24.0607 10.5758 24.1237 11.2058 23.774 11.6332C23.4243 12.0607 22.7942 12.1237 22.3668 11.774L12 3.29206L1.63327 11.774C1.20582 12.1237 0.5758 12.0607 0.226073 11.6332C-0.123655 11.2058 -0.0606525 10.5758 0.366792 10.226L11.3668 1.22604Z" fill="black"/>
<path fill-rule="evenodd" clip-rule="evenodd" d="M11 10C10.4477 10 10 10.4477 10 11V13C10 13.5523 10.4477 14 11 14H13C13.5523 14 14 13.5523 14 13V11C14 10.4477 13.5523 10 13 10H11ZM5 13C5 12.4477 4.55228 12 4 12C3.44772 12 3 12.4477 3 13V23C3 23.5523 3.44772 24 4 24H10H14H20C20.5523 24 21 23.5523 21 23V13C21 12.4477 20.5523 12 20 12C19.4477 12 19 12.4477 19 13V22H15V17C15 16.4477 14.5523 16 14 16H10C9.44772 16 9 16.4477 9 17V22H5V13ZM11 22H13V18H11V22Z" fill="black"/>
</g>
<defs>
<clipPath id="clip0_1150_5559">
<rect width="24" height="24" fill="white"/>
</clipPath>
</defs>
</svg>

<svg width="24" height="24" viewBox="0 0 24 24" xmlns="http://www.w3.org/2000/svg"><g clip-path="url(#a)" fill-rule="evenodd" clip-rule="evenodd"><path d="M11.367 1.226a1 1 0 0 1 1.266 0l11 9a1 1 0 0 1-1.266 1.548L12 3.292 1.633 11.774a1 1 0 0 1-1.266-1.548l11-9Z"/><path d="M11 10a1 1 0 0 0-1 1v2a1 1 0 0 0 1 1h2a1 1 0 0 0 1-1v-2a1 1 0 0 0-1-1h-2Zm-6 3a1 1 0 1 0-2 0v10a1 1 0 0 0 1 1h16a1 1 0 0 0 1-1V13a1 1 0 1 0-2 0v9h-4v-5a1 1 0 0 0-1-1h-4a1 1 0 0 0-1 1v5H5v-9Zm6 9h2v-4h-2v4Z"/></g><defs><clipPath id="a"><path fill="#fff" d="M0 0h24v24H0z"/></clipPath></defs></svg>
